src/assets/checklist.svg

<svg width="324" height="360" viewBox="0 0 324 360" fill="none" xmlns="http://www.w3.org/2000/svg">
<path d="M213.263 346.702V42.9173C213.263 35.5725 207.905 29.6191 201.294 29.6191H34.1432C27.5328 29.6191 22.1748 35.5732 22.1748 42.9173V346.702C22.1748 354.047 27.5335 360 34.1432 360H201.295C207.905 360 213.263 354.046 213.263 346.702Z" fill="#FFC250"/>
<path d="M240.537 29.6184H200.48C207.091 29.6184 212.449 35.5725 212.449 42.9166V346.701C212.449 354.046 207.091 359.999 200.48 359.999H240.537C247.147 359.999 252.506 354.045 252.506 346.701V42.9173C252.506 35.5725 247.147 29.6184 240.537 29.6184Z" fill="#EAB14D"/>
<path d="M41.7373 333.51V56.108C41.7373 53.4825 43.6528 51.3549 46.0151 51.3549H228.665C231.028 51.3549 232.943 53.4832 232.943 56.108V333.51C232.943 336.136 231.027 338.264 228.665 338.264H46.0151C43.6522 338.264 41.7373 336.136 41.7373 333.51Z" fill="#F5F5F5"/>
<path d="M228.665 51.3549H188.608C190.971 51.3549 192.886 53.4832 192.886 56.108V333.51C192.886 336.136 190.971 338.264 188.608 338.264H228.665C231.028 338.264 232.943 336.135 232.943 333.51V56.108C232.943 53.4832 231.028 51.3549 228.665 51.3549Z" fill="#EAEAEA"/>
<path d="M162.766 16.5502V9.54914C162.766 4.2757 158.918 0 154.171 0H120.508C115.761 0 111.914 4.2757 111.914 9.54914V16.5502C111.914 18.7066 110.34 20.4553 108.399 20.4553H94.3884C89.7277 20.4553 85.9492 24.6537 85.9492 29.8322V51.3548H188.73V29.8322C188.73 24.6537 184.951 20.4553 180.291 20.4553H166.28C164.339 20.4553 162.766 18.7066 162.766 16.5502Z" fill="#C2D0DA"/>
<path d="M66.6211 128.526V86.663C66.6211 82.0251 70.0054 78.2648 74.1794 78.2648H111.856C116.03 78.2648 119.414 82.0251 119.414 86.663V128.526C119.414 133.163 116.03 136.924 111.856 136.924H74.1794C70.0047 136.924 66.6211 133.163 66.6211 128.526Z" fill="#66B49D"/>
<path d="M66.6211 215.741V173.879C66.6211 169.241 70.0054 165.48 74.1794 165.48H111.856C116.03 165.48 119.414 169.241 119.414 173.879V215.741C119.414 220.379 116.03 224.139 111.856 224.139H74.1794C70.0047 224.139 66.6211 220.379 66.6211 215.741Z" fill="#66B49D"/>
<path d="M66.6211 302.956V261.093C66.6211 256.456 70.0054 252.695 74.1794 252.695H111.856C116.03 252.695 119.414 256.456 119.414 261.093V302.956C119.414 307.594 116.03 311.354 111.856 311.354H74.1794C70.0047 311.354 66.6211 307.595 66.6211 302.956Z" fill="#66B49D"/>
<path d="M89.8284 122.586C89.8227 122.586 89.8177 122.586 89.812 122.586C87.6535 122.58 85.6063 121.418 84.335 119.48L78.6258 110.768C77.0361 108.342 77.5171 104.944 79.7003 103.178C81.8835 101.412 84.9419 101.947 86.5309 104.372L89.8411 109.424L99.52 94.8129C101.121 92.3962 104.181 91.8801 106.356 93.6583C108.531 95.4366 108.996 98.8376 107.395 101.254L95.3004 119.511C94.0253 121.437 91.98 122.586 89.8284 122.586Z" fill="#F6F9F9"/>
<path d="M89.8278 211.699C89.8215 211.699 89.8158 211.699 89.8101 211.699C87.6516 211.693 85.6044 210.532 84.3337 208.592L78.6258 199.882C77.0361 197.456 77.5171 194.058 79.7003 192.291C81.8835 190.526 84.9419 191.06 86.5309 193.485L89.8411 198.537L99.52 183.926C101.121 181.51 104.181 180.993 106.356 182.772C108.531 184.55 108.996 187.951 107.395 190.368L95.3004 208.624C94.0253 210.551 91.98 211.699 89.8278 211.699Z" fill="#F6F9F9"/>
<path d="M89.8276 297.018C89.8219 297.018 89.8162 297.018 89.8111 297.017C87.6532 297.011 85.6055 295.85 84.3348 293.913L78.6255 285.199C77.0359 282.774 77.5175 279.376 79.7007 277.61C81.8851 275.844 84.9423 276.379 86.5313 278.805L89.8409 283.856L99.5204 269.245C101.121 266.829 104.182 266.312 106.356 268.09C108.531 269.869 108.996 273.27 107.395 275.686L95.3008 293.943C94.0244 295.869 91.9798 297.018 89.8276 297.018Z" fill="#F6F9F9"/>
<path d="M204.203 101.675H143.76C141.06 101.675 138.871 99.2433 138.871 96.243C138.871 93.2428 141.06 90.8107 143.76 90.8107H204.203C206.903 90.8107 209.092 93.2428 209.092 96.243C209.092 99.2433 206.903 101.675 204.203 101.675Z" fill="#DDEAFB"/>
<path d="M173.982 124.377H143.761C141.061 124.377 138.872 121.945 138.872 118.945C138.872 115.945 141.061 113.513 143.761 113.513H173.982C176.683 113.513 178.872 115.945 178.872 118.945C178.872 121.945 176.683 124.377 173.982 124.377Z" fill="#DDEAFB"/>
<path d="M184.316 188.891H143.761C141.061 188.891 138.872 186.459 138.872 183.459C138.872 180.458 141.061 178.026 143.761 178.026H184.316C187.016 178.026 189.205 180.458 189.205 183.459C189.205 186.459 187.016 188.891 184.316 188.891Z" fill="#DDEAFB"/>
<path d="M173.982 211.593H143.761C141.061 211.593 138.872 209.161 138.872 206.16C138.872 203.16 141.061 200.728 143.761 200.728H173.982C176.683 200.728 178.872 203.16 178.872 206.16C178.872 209.161 176.683 211.593 173.982 211.593Z" fill="#DDEAFB"/>
<path d="M282.81 141.833L278.009 134.806L260.047 122.167L253.142 120.959L161.166 282.447C158.947 286.341 157.319 290.614 156.347 295.095C167.537 295.249 177.695 302.395 182.605 313.57C185.834 310.678 188.614 307.216 190.834 303.322L282.81 141.833Z" fill="#FC8086"/>
<path d="M295.795 92.1038L288.033 86.6426C281.983 82.3852 273.971 84.3856 270.142 91.1095L263.024 103.606L265.295 108.692L286.893 123.889L292.693 124.481L299.814 111.976C303.641 105.256 301.842 96.3591 295.795 92.1038Z" fill="#8C9BA6"/>
<path d="M253.153 120.912L263.041 103.56L292.714 124.435L282.826 141.787L253.153 120.912Z" fill="#C9E2E7"/>
<path d="M182.605 313.571L156.416 337.02C152.722 340.328 147.354 336.551 148.466 331.426L156.347 295.095C167.538 295.248 177.696 302.396 182.605 313.571Z" fill="#7C8B96"/>
<path d="M175.736 303.503L272.151 134.333L263.889 128.52L167.475 297.69C170.499 299.107 173.29 301.07 175.736 303.503Z" fill="#FB636F"/>
</svg>

<svg width="324" height="360" fill="none" xmlns="http://www.w3.org/2000/svg"><path d="M213.263 346.702V42.917c0-7.345-5.358-13.298-11.969-13.298H34.144c-6.611 0-11.97 5.954-11.97 13.298v303.785c0 7.345 5.36 13.298 11.97 13.298h167.151c6.61 0 11.968-5.954 11.968-13.298Z" fill="#FFC250"/><path d="M240.537 29.618H200.48c6.611 0 11.969 5.954 11.969 13.299V346.7c0 7.345-5.358 13.298-11.969 13.298h40.057c6.61 0 11.969-5.954 11.969-13.298V42.917c0-7.345-5.359-13.299-11.969-13.299Z" fill="#EAB14D"/><path d="M41.737 333.51V56.108c0-2.625 1.916-4.753 4.278-4.753h182.65c2.363 0 4.278 2.128 4.278 4.753V333.51c0 2.626-1.916 4.754-4.278 4.754H46.015c-2.363 0-4.278-2.128-4.278-4.754Z" fill="#F5F5F5"/><path d="M228.665 51.355h-40.057c2.363 0 4.278 2.128 4.278 4.753V333.51c0 2.626-1.915 4.754-4.278 4.754h40.057c2.363 0 4.278-2.129 4.278-4.754V56.108c0-2.625-1.915-4.753-4.278-4.753Z" fill="#EAEAEA"/><path d="M162.766 16.55v-7c0-5.274-3.848-9.55-8.595-9.55h-33.663c-4.747 0-8.594 4.276-8.594 9.55v7c0 2.157-1.574 3.905-3.515 3.905h-14.01c-4.661 0-8.44 4.199-8.44 9.377v21.523H188.73V29.832c0-5.178-3.779-9.377-8.439-9.377H166.28c-1.941 0-3.514-1.748-3.514-3.905Z" fill="#C2D0DA"/><path d="M66.621 128.526V86.663c0-4.638 3.384-8.398 7.558-8.398h37.677c4.174 0 7.558 3.76 7.558 8.398v41.863c0 4.637-3.384 8.398-7.558 8.398H74.179c-4.174 0-7.558-3.761-7.558-8.398ZM66.621 215.741v-41.862c0-4.638 3.384-8.399 7.558-8.399h37.677c4.174 0 7.558 3.761 7.558 8.399v41.862c0 4.638-3.384 8.398-7.558 8.398H74.179c-4.174 0-7.558-3.76-7.558-8.398ZM66.621 302.956v-41.863c0-4.637 3.384-8.398 7.558-8.398h37.677c4.174 0 7.558 3.761 7.558 8.398v41.863c0 4.638-3.384 8.398-7.558 8.398H74.179c-4.174 0-7.558-3.759-7.558-8.398Z" fill="#66B49D"/><path d="M89.828 122.586h-.016c-2.159-.006-4.206-1.168-5.477-3.106l-5.71-8.712c-1.589-2.426-1.108-5.824 1.075-7.59s5.242-1.231 6.83 1.194l3.311 5.052 9.679-14.611c1.601-2.417 4.661-2.933 6.836-1.155 2.175 1.779 2.64 5.18 1.039 7.596L95.3 119.511c-1.275 1.926-3.32 3.075-5.472 3.075ZM89.828 211.699h-.018c-2.158-.006-4.206-1.167-5.476-3.107l-5.708-8.71c-1.59-2.426-1.109-5.824 1.074-7.591 2.183-1.765 5.242-1.231 6.83 1.194l3.311 5.052 9.679-14.611c1.601-2.416 4.661-2.933 6.836-1.154 2.175 1.778 2.64 5.179 1.039 7.596L95.3 208.624c-1.275 1.927-3.32 3.075-5.472 3.075ZM89.828 297.018l-.017-.001c-2.158-.006-4.206-1.167-5.476-3.104l-5.71-8.714c-1.59-2.425-1.108-5.823 1.076-7.589s5.241-1.231 6.83 1.195l3.31 5.051 9.68-14.611c1.6-2.416 4.661-2.933 6.835-1.155 2.175 1.779 2.64 5.18 1.039 7.596l-12.094 18.257c-1.277 1.926-3.321 3.075-5.473 3.075Z" fill="#F6F9F9"/><path d="M204.203 101.675H143.76c-2.7 0-4.889-2.432-4.889-5.432 0-3 2.189-5.432 4.889-5.432h60.443c2.7 0 4.889 2.432 4.889 5.432 0 3-2.189 5.432-4.889 5.432ZM173.982 124.377h-30.221c-2.7 0-4.889-2.432-4.889-5.432 0-3 2.189-5.432 4.889-5.432h30.221c2.701 0 4.89 2.432 4.89 5.432 0 3-2.189 5.432-4.89 5.432ZM184.316 188.891h-40.555c-2.7 0-4.889-2.432-4.889-5.432 0-3.001 2.189-5.433 4.889-5.433h40.555c2.7 0 4.889 2.432 4.889 5.433 0 3-2.189 5.432-4.889 5.432ZM173.982 211.593h-30.221c-2.7 0-4.889-2.432-4.889-5.433 0-3 2.189-5.432 4.889-5.432h30.221c2.701 0 4.89 2.432 4.89 5.432 0 3.001-2.189 5.433-4.89 5.433Z" fill="#DDEAFB"/><path d="m282.81 141.833-4.801-7.027-17.962-12.639-6.905-1.208-91.976 161.488a44.69 44.69 0 0 0-4.819 12.648c11.19.154 21.348 7.3 26.258 18.475 3.229-2.892 6.009-6.354 8.229-10.248l91.976-161.489Z" fill="#FC8086"/><path d="m295.795 92.104-7.762-5.461c-6.05-4.258-14.062-2.257-17.891 4.466l-7.118 12.497 2.271 5.086 21.598 15.197 5.8.592 7.121-12.505c3.827-6.72 2.028-15.617-4.019-19.872Z" fill="#8C9BA6"/><path d="m253.153 120.912 9.888-17.352 29.673 20.875-9.888 17.352-29.673-20.875Z" fill="#C9E2E7"/><path d="m182.605 313.571-26.189 23.449c-3.694 3.308-9.062-.469-7.95-5.594l7.881-36.331c11.191.153 21.349 7.301 26.258 18.476Z" fill="#7C8B96"/><path d="m175.736 303.503 96.415-169.17-8.262-5.813-96.414 169.17c3.024 1.417 5.815 3.38 8.261 5.813Z" fill="#FB636F"/></svg>
